X:1
T:Storer, 12.12.12.12
T:Storer, 12.12.12.12
T:Henry Johnson Storer, 1911
T:Public Domain Courtesy of the Cyber Hymnal™
C:Henry Johnson Storer, 1911
Z:Public Domain
Z:Courtesy of the Cyber Hymnal™
%%score ( 1 2 ) ( 3 4 )
L:1/8
Q:1/4=112
M:4/4
K:Db
V:1 treble 
V:2 treble 
V:3 bass 
V:4 bass 
V:1
 [DF]2 | [DF]3 [DF] [DF]2 [DF]2 | [DF]3 [DE] [DE]2 [DF]2 | [DG]4 [CG]4 | [DF]6 [EF]2 | %5
 [Dd]3 [Ec] [FB]2 [FA]2 | [F=G]2 [EB]2 [Ee]2 [CA]2 | [Ec]4 [=GB]4 | A6 A2 | %9
 [GB]3 [GB] [FA]2 [EG]2 | [EG]2 [DF]2 [CF]2 F2 | [FB]4 [Fc]4 | [Fd]6 [Fd]2 | %13
 [=Ge]3 [Gd] [Gc]2 [Gd]2 | [Af]2 [Dd]2 [Ec]2 [=EB]2 | [FA]4 [Ge]4 | [Fd]6 |] %17
V:2
 x2 | x8 | x8 | x8 | x8 | x8 | x8 | x8 | A6 A2 | x8 | x6 F2 | x8 | x8 | x8 | x8 | x8 | x6 |] %17
V:3
 [D,A,]2 | [D,A,]3 [D,A,] [D,A,]2 [D,=A,]2 | [G,B,]3 [G,B,] [G,B,]2 [F,B,]2 | [E,B,]4 [A,,A,]4 | %4
 [D,A,]6 [C,=A,]2 | [B,,F]3 [C,E] [D,D]2 [D,C]2 | [E,B,]2 [D,=G,]2 [C,A,]2 [F,A,]2 | %7
 [E,A,]4 [E,D]4 | [A,C]6 [A,C]2 | [A,,C]3 [A,,C] [B,,A,]2 [C,A,]2 | %10
 [D,A,]2 [D,A,]2 [F,=A,]2 [E,C]2 | [D,F,]4 (=G,2 =A,2) | [B,,B,]6 [B,D]2 | %13
 [B,D]3 [B,D] [B,E]2 [B,D]2 | [A,D]2 [F,D]2 [G,D]2 [=G,D]2 | [A,D]4 [A,,A,C]4 | [D,D]6 |] %17
V:4
 x2 | x8 | x8 | x8 | x8 | x8 | x8 | x8 | x8 | x8 | x8 | x4 C,4 | x8 | x8 | x8 | x8 | x6 |] %17

